X: 46
M:6/8
L:1/8
K:G
dgg gfe|ded dBd|gbg a/2b/2c'a|bgg g2:|
|:B/2c/2|dBG GFG|ecc c2 d|eAA ABG|Edd d2 B|
1dgg gfe|ded dBd|gbg a/2b/2c'a|bgg g2:|
2dgg faa|gbb abc'|d'bg a/2b/2c'a|bgg g2||

